X:1
T:Mannheim, 87.87.87
T:Mannheim, 87.87.87
T:Friedrich Filitz, 1847
T:Public Domain Courtesy of the Cyber Hymnal™
C:Friedrich Filitz, 1847
Z:Public Domain
Z:Courtesy of the Cyber Hymnal™
%%score ( 1 2 ) ( 3 4 )
L:1/8
Q:1/4=108
M:4/4
K:E
V:1 treble 
V:2 treble 
V:3 bass 
V:4 bass 
V:1
 [B,E]2 [EG]2 [FB]2 [EB]2 | [Ec]2 [DB]2 [EA]2 [EG]2 | [EG]2 [FA]2 [FB]2 E2 | [EG]2 [DF]2 E4 | %4
 [EB]2 [EB]2 [Ec]2 [EB]2 | [E=d]2 [Ec]2 [Ec]2 [EB]2 | [FB]2 [DF]2 [EG]2 [Gc]2 | %7
 [FB]2 [E^A]2 [DB]4 | [B,E]2 [EG]2 [FB]2 [EB]2 | [Ec]2 [DB]2 [EA]2 [EG]2 | [EG]2 [FA]2 [FB]2 E2 | %11
 [EG]2 [DF]2 E4 |] %12
V:2
 x8 | x8 | x8 | x4 E4 | x8 | x8 | x8 | x8 | x8 | x8 | x6 E2 | x4 E4 |] %12
V:3
 [E,G,]2 [E,B,]2 [D,B,]2 [E,G,]2 | [A,,A,]2 [B,,F,]2 [C,E,]2 E,2 | [C,C]2 [F,C]2 [D,B,]2 [E,G,]2 | %3
 [B,,B,]2 [B,,A,]2 [E,G,]4 | [E,G,]2 [E,G,]2 [E,A,]2 [E,G,]2 | [G,B,]2 A,2 [E,A,]2 [E,G,]2 | %6
 [D,B,]2 [B,,B,]2 [E,B,]2 [C,C]2 | [F,B,]2 [F,C]2 [B,,B,]4 | [E,G,]2 [E,B,]2 [D,B,]2 [E,G,]2 | %9
 [A,,A,]2 [B,,F,]2 [C,E,]2 E,2 | [C,C]2 [F,C]2 [D,B,]2 [E,G,]2 | [B,,B,]2 [B,,A,]2 [E,G,]4 |] %12
V:4
 x8 | x6 E,2 | x8 | x8 | x8 | x2 A,2 x4 | x8 | x8 | x8 | x6 E,2 | x8 | x8 |] %12

